icons/Media/picture-in-picture-exit-line.svg

<svg viewBox="0 0 24 24" xmlns="http://www.w3.org/2000/svg"><path d="M21 3C21.5523 3 22 3.44772 22 4V11H20V5H4V19H10V21H3C2.44772 21 2 20.5523 2 20V4C2 3.44772 2.44772 3 3 3H21ZM21 13C21.5523 13 22 13.4477 22 14V20C22 20.5523 21.5523 21 21 21H13C12.4477 21 12 20.5523 12 20V14C12 13.4477 12.4477 13 13 13H21ZM20 15H14V19H20V15ZM11.5 7L9.45711 9.04311L11.7071 11.2929L10.2929 12.7071L8.04311 10.4571L6 12.5V7H11.5Z"/></svg>

<svg xmlns="http://www.w3.org/2000/svg" viewBox="0 0 24 24">
    <g>
        <path fill="none" d="M0 0h24v24H0z"/>
        <path fill-rule="nonzero" d="M21 3a1 1 0 0 1 1 1v7h-2V5H4v14h6v2H3a1 1 0 0 1-1-1V4a1 1 0 0 1 1-1h18zm0 10a1 1 0 0 1 1 1v6a1 1 0 0 1-1 1h-8a1 1 0 0 1-1-1v-6a1 1 0 0 1 1-1h8zm-1 2h-6v4h6v-4zm-8.5-8L9.457 9.043l2.25 2.25-1.414 1.414-2.25-2.25L6 12.5V7h5.5z"/>
    </g>
</svg>
